X:1
T:March
T:March
T:(Song of the lark) 
T:P. Tchaikovsky Op. 37a, №3
%%score { ( 1 4 ) | ( 2 3 ) }
L:1/8
Q:1/4=80
M:2/4
K:Bb
V:1 treble nm="Piano" snm="Pno."
V:4 treble 
V:2 bass 
V:3 bass 
V:1
"^Andantino espressivo"!p! z4 | z4 | z!p! .G/(3(G/4A/4G/4) (^F>A) |!<(! (G/B/d/^f/)!<)! (!>!g>(f) | %4
 d)[G,B,D] z [A,CD] | z [B,D] z [A,CD] | z .G/(3(G/4A/4G/4)!<(! (^F>A) | %7
 (G/B/d/^f/) (!>!g>=f)!<)! | (f[ce]) (dc) |!>(! (.c/.^F/.G/.A/)!>)! (!>!B>A | %10
 G)"^un pochettino più mosso" x x2 |!<(! x4 |{/a} (c'>b){/b} .d'/.a/{/b}.d'/.a/!<)! | %13
!>(!{/a} d'/g(b/ b/)^f(a/ | a/)d!>)!g/{de} (d>A) |!<(! x4 |{/a} (c'>b){/^f} .b/.f/{/=f}.b/.f/!<)! | %17
!>(!{/^f} a/dg/{/d} .B/.A/{/d}.B/.A/!>)! |{/d} A/(GD/)!<(!{DE} (D>A,) | %19
 .B,/.^C/.D/.E/ .F/.^F/.B/.A/ |{/A} (c>B)!<)!{/B} d/A/{/B}d/A/ | %21
!>(!{/A} d/(DG/){/D} .G/.^C/{/D}.G/.C/!>)! |{/D} (G>^F)!p! z/ (3(D/4E/4D/4)(^C/>D/) | %23
 .^F/4.^G/4.A/4.^c/4d z/ .=g/4(3(g/8a/8!<(!g/8)(^f/>g/)!<)! | %24
!>(! d'/(dD/)!>)! z/ (3(D/4E/4D/4)(^C/>D/) | %25
 .^F/4.^G/4.A/4.^c/4d z/!<(! .=g/4(3(g/8a/8g/8)(^f/>g/) | %26
 d'/(dD/) z/ .=g/4(3(g/8a/8g/8)(^f/>g/)!<)! | d'/(dD/) z/ (^c^C/) | %28
"^poco ritenuto" z/ (dD/) z/!>(! (^c^C/) | z/ (dD/) z/ (dD/)!>)! | %30
!p!"^a tempo" z .G/(3(G/4A/4G/4) (^F>A) |!<(! (G/B/d/^f/)!<)! !>!g>f | d[G,B,D] z [A,CD] | %33
!<(! z [B,D]!<)! z [A,CD] | z .G/!<(!(3(G/4A/4G/4) (^F>A) | (G/B/d/^f/) (!>!g>=f)!<)! | (fe) (dc) | %37
 (.c/.^F/.G/.A/) (!>!B>A | G).G/!pp!(3(G/4A/4G/4) (^F>A) | (G/B/d/^f/) (!>!g>f) | %40
 d!pp![G,B,D]/ z/ z [A,CD]/ z/ | z [G,B,D]/ z/ z [A,CD]/ z/ |!ppp! z [B,D]/ z/ z [A,CD]/ z/ | %43
 z [B,D]/ z/ z [A,CD]/ z/ | z!>(! [G,B,D]2 ((([G,B,D] | [G,B,D]))) [G,B,D]2!>)! !fermata![G,B,D] |] %46
V:2
 [B,D]2 [CE]2 | [B,D]2 [A,CD]2 | [B,D]2 [CE]2 | [B,D]2!ped! [A,CD]2!ped-up! | [B,D] x (^F,,>A,,) | %5
!<(! (G,,/B,,/D,/^F,/)!<)!!ped! (!>!G,>F,)!ped-up! | z [G,B,D]!ped! z [^F,A,D]!ped-up! | %7
!ped! z [G,B,D]!ped! z [G,=B,D]!ped-up! | z/ (^F,/G,/C/) (=F>E) | [G,B,D]2 z D | %10
"^poco più f" [G,,D,] z[K:treble] [E_G]2 | [DF]2 [CE]2 |!ped! [DF]2!ped! [D^Fc]2!ped-up! | %13
!ped! [DGB]2!ped! [CE]2!ped-up! |!ped! D2 [E_G]2!ped-up! | [DF]2 [=CE]2 | %16
!ped! [DF]2!ped! [D^Fc]2!ped-up! |!ped! [DGB]2[K:bass]!ped-up!!ped! [D,^F,C]2!ped-up! | %18
 [D,G,B,]2 [E,_G,]2 | [D,F,]2 [=C,E,]2 | [D,F,]2 [D,^F,C]2 | %21
!ped! [D,G,B,]2!ped-up!!ped! [=E,A,]2!ped-up! |!ped! D,2 [G,B,]2!ped-up! | %23
 [A,=C]2!ped! [B,D]2!ped-up! |!ped! [A,C]2 [G,B,]2!ped-up! | [A,=C]2!ped! [B,D]2!ped-up! | %26
!ped! [A,C]2!ped-up!!ped!"^dim." [B,D]2!ped-up! |!ped! [A,C]2!ped-up!!ped! [G,B,]2!ped-up! | %28
!ped! [^F,A,]2!ped-up!!ped! [G,B,]2!ped-up! |!ped! [^F,A,]2 [F,A,]2!ped-up! | [B,D]2 [CE]2 | %31
 [B,D]2!ped! [A,CD]2!ped-up! | [B,D]2 (^F,,>A,,) | (G,,/B,,/D,/^F,/) (!>!G,>F,) | %34
 z [G,B,D]!ped! z [^F,A,D]!ped-up! |!ped! z [G,B,D]!ped-up!!ped! z [G,=B,D]!ped-up! | %36
 z/ (^F,/G,/C/) (!>!=F>E) | [G,B,D]2 z D | z [B,D]/ z/ z [CE]/ z/ | z [B,D]/ z/ z [CE]/ z/ | %40
 [B,D] z (^F,,>A,,) | (G,,/B,,/D,/^F,/) (!>!G,>F,) | [G,,D,] z (!>!G,>^F,) | [G,,D,] z (G,>^F, | %44
 (([G,,D,]4) | !fermata![G,,D,]4)) |] %46
V:3
 z G,2 (G, | G,) G,2 G, | z G,2 (G, | G,) G,2 (G, | G,)G,,/(3(G,,/4A,,/4G,,/4) x2 | x4 | (D,2 C,2 | %7
 B,,) z =B,, z | C, z z [G,C] | z (D, D,2) | x2[K:treble] z (B, | B,) B,2 (B, | B,) B,2 (B, | %13
 B,) B,2 (B, | B,) B,2 (B, | B,) B,2 (B, | B,) B,2 (B, | B,)B,[K:bass] z (B,, | B,,) B,,2 (B,, | %19
 B,,) B,,2 (B,, | B,,) B,,2 B,, | B,,B,, z A,, | z D,, z D, | z D, z D, | z D, z D, | z D, z D, | %26
 z D, z D, | z D, z D, | z D, z D, | z D, z D, | z G,2 (G, | G,) G,2 (G, | %32
 G,).G,,/(3(G,,/4A,,/4G,,/4) x3/2 x/ | x4 | (D,2 C,2 | B,,) z =B,, z | C, z z [G,C] | z (D, D,2) | %38
 [G,,D,](G, (G,2) | (G,4) | G,).G,,/(3(G,,/4A,,/4G,,/4) x3/2 x/ | x4 | x4 | x4 | x4 | x4 |] %46
V:4
 x4 | x4 | x4 | x4 | x4 | x4 | x4 | x4 | z G z G | z2 [C^F]2 | [B,D]d{de} (d>A) | %11
 .B/.^c/.d/.e/ .f/.^f/.b/.a/ | x4 | x4 | x4 | .B/.^c/.d/.e/ .f/.^f/.b/.a/ | x4 | x4 | x4 | x4 | %20
 x4 | x4 | z/ (A,/A,/) x/ x2 | x4 | x4 | x4 | x4 | x4 | x4 | x4 | x4 | x4 | x4 | x4 | x4 | x4 | %36
 z [Gc] z G | z2 [C^F]2 | [B,D] x x2 | x4 | x4 | x4 | x4 | x4 | x4 | x4 |] %46

